Numix-GalliumOS/48/actions/stock_task.svg

<?xml version="1.0" encoding="UTF-8" standalone="no"?>
<svg
   xmlns:dc="http://purl.org/dc/elements/1.1/"
   xmlns:cc="http://creativecommons.org/ns#"
   xmlns:rdf="http://www.w3.org/1999/02/22-rdf-syntax-ns#"
   xmlns:svg="http://www.w3.org/2000/svg"
   xmlns="http://www.w3.org/2000/svg"
   xmlns:sodipodi="http://sodipodi.sourceforge.net/DTD/sodipodi-0.dtd"
   xmlns:inkscape="http://www.inkscape.org/namespaces/inkscape"
   viewBox="0 0 48 48"
   id="svg2"
   version="1.1"
   inkscape:version="0.91 r13725"
   sodipodi:docname="stock_task.svg"
   width="48"
   height="48">
  <metadata
     id="metadata98">
    <rdf:RDF>
      <cc:Work
         rdf:about="">
        <dc:format>image/svg+xml</dc:format>
        <dc:type
           rdf:resource="http://purl.org/dc/dcmitype/StillImage" />
        <dc:title></dc:title>
      </cc:Work>
    </rdf:RDF>
  </metadata>
  <sodipodi:namedview
     pagecolor="#ffffff"
     bordercolor="#666666"
     borderopacity="1"
     objecttolerance="10"
     gridtolerance="10"
     guidetolerance="10"
     inkscape:pageopacity="0"
     inkscape:pageshadow="2"
     inkscape:window-width="750"
     inkscape:window-height="982"
     id="namedview96"
     showgrid="true"
     inkscape:zoom="9.833334"
     inkscape:cx="23.659091"
     inkscape:cy="8.7712298"
     inkscape:window-x="520"
     inkscape:window-y="32"
     inkscape:window-maximized="0"
     inkscape:current-layer="svg2"
     inkscape:object-nodes="true"
     inkscape:snap-smooth-nodes="true"
     units="mm"
     borderlayer="false">
    <inkscape:grid
       type="xygrid"
       id="grid4360" />
  </sodipodi:namedview>
  <defs
     id="defs4">
    <path
       id="SVGCleanerId_0"
       d="m 14,12 20,0 c 1.105,0 2,0.895 2,2 l 0,20 c 0,1.105 -0.895,2 -2,2 l -20,0 c -1.105,0 -2,-0.895 -2,-2 l 0,-20 c 0,-1.105 0.895,-2 2,-2 m 0,0"
       inkscape:connector-curvature="0" />
    <clipPath
       id="clipPath-543229327">
      <g
         transform="translate(0,-1004.3622)"
         id="g3857">
        <path
           inkscape:connector-curvature="0"
           d="m -24,13 c 0,1.105 -0.672,2 -1.5,2 -0.828,0 -1.5,-0.895 -1.5,-2 0,-1.105 0.672,-2 1.5,-2 0.828,0 1.5,0.895 1.5,2 z"
           transform="matrix(15.333333,0,0,11.5,414.99999,878.8622)"
           style="fill:#1890d0"
           id="path3859" />
      </g>
    </clipPath>
  </defs>
  <path
     sodipodi:nodetypes="cssssssc"
     id="path3893"
     style="fill:#e6b07f;fill-opacity:1;fill-rule:evenodd;stroke:none"
     d="m 36,10 c 2,0 2,0 2,2 l 0,28 c 0,2 0,2 -2,2 l -24,0 c -2,0 -2,0 -2,-2 l 0,-28 c 0,-2 0,-2 2,-2"
     inkscape:connector-curvature="0" />
  <path
     sodipodi:nodetypes="cccc"
     id="path3895"
     style="fill:#ffffff;fill-opacity:1;fill-rule:nonzero;stroke:none"
     d="m 34,9.999999 -20,0 L 14,38 34,38"
     inkscape:connector-curvature="0" />
  <path
     sodipodi:nodetypes="cccc"
     id="path3897"
     style="fill:#aaaaaa;fill-opacity:1;fill-rule:nonzero;stroke:none"
     d="m 16,6 0,6.142857 16,0 L 32,6"
     inkscape:connector-curvature="0" />
  <path
     sodipodi:nodetypes="cccc"
     id="path3899"
     style="fill:#868686;fill-opacity:1;fill-rule:nonzero;stroke:none"
     d="m 16,30 0,2 16,0 0,-2"
     inkscape:connector-curvature="0" />
  <path
     sodipodi:nodetypes="cccc"
     id="path3901"
     style="fill:#868686;fill-opacity:1;fill-rule:nonzero;stroke:none"
     d="m 16,34 0,2 16,0 0,-2"
     inkscape:connector-curvature="0" />
  <g
     id="g34"
     transform="matrix(2,0,0,2,2,-50)" />
  <path
     inkscape:connector-curvature="0"
     d="M 16.000002,22 16,24 31.999998,24 32,22"
     style="fill:#868686;fill-opacity:1;fill-rule:nonzero;stroke:none"
     id="path3899-5"
     sodipodi:nodetypes="cccc" />
  <path
     inkscape:connector-curvature="0"
     d="M 16.000002,26 16,28 31.999998,28 32,26"
     style="fill:#868686;fill-opacity:1;fill-rule:nonzero;stroke:none"
     id="path3901-7"
     sodipodi:nodetypes="cccc" />
  <path
     inkscape:connector-curvature="0"
     d="m 16.000004,13.999999 -2e-6,2 15.999998,0 2e-6,-2"
     style="fill:#868686;fill-opacity:1;fill-rule:nonzero;stroke:none"
     id="path3899-5-9"
     sodipodi:nodetypes="cccc" />
  <path
     inkscape:connector-curvature="0"
     d="m 16.000004,17.999999 -2e-6,2 15.999998,0 2e-6,-2"
     style="fill:#868686;fill-opacity:1;fill-rule:nonzero;stroke:none"
     id="path3901-7-2"
     sodipodi:nodetypes="cccc" />
</svg>

<svg xmlns="http://www.w3.org/2000/svg" viewBox="0 0 48 48">
 <path d="m 36 10 c 2 0 2 0 2 2 l 0 28 c 0 2 0 2 -2 2 l -24 0 c -2 0 -2 0 -2 -2 l 0 -28 c 0 -2 0 -2 2 -2" style="fill:#e6b07f;fill-opacity:1;stroke:none;fill-rule:evenodd"/>
 <path d="m 34 10 -20 0 l 0 28 20 0" style="fill:#fff;fill-opacity:1;stroke:none;fill-rule:nonzero"/>
 <path d="m 16,6 0,6.142857 16,0 L 32,6" style="fill:#aaa;fill-opacity:1;stroke:none;fill-rule:nonzero"/>
 <path d="m 16 30 0 2 16 0 0 -2" style="fill:#868686;fill-opacity:1;stroke:none;fill-rule:nonzero"/>
 <path d="m 16 34 0 2 16 0 0 -2" style="fill:#868686;fill-opacity:1;stroke:none;fill-rule:nonzero"/>
 <path d="m 16 22 0 2 16 0 0 -2" style="fill:#868686;fill-opacity:1;stroke:none;fill-rule:nonzero"/>
 <path d="m 16 26 0 2 16 0 0 -2" style="fill:#868686;fill-opacity:1;stroke:none;fill-rule:nonzero"/>
 <path d="m 16 14 0 2 16 0 0 -2" style="fill:#868686;fill-opacity:1;stroke:none;fill-rule:nonzero"/>
 <path d="m 16 18 0 2 16 0 0 -2" style="fill:#868686;fill-opacity:1;stroke:none;fill-rule:nonzero"/>
</svg>
